X: 175
T: Na Ceannabhain Bhana
M:9/8
R: slip jig
L:1/8
K:G
c|"G"BAG AGE GED|EGD DEG "D"A2c|"G"BAG AGE GED|EGD "D"DEF "G"G2:|
A|"G"Bdd edd BAG|Bdd edB "D"A2c|"G"Bdd edd BAG|GED "D"DEF "G"G2c|
"G"Bdd edd BAG|Bdd gdB "D"A2c|"G"Bdd edd BAG|GED "D"DEF "G"G2|]


